X: 11
T:Boy in the Baskett,The. BF13.010
T:Long Room At Scarborough,aka. BF13.010
T:Bean Setting,aka. BF13.010
M:9/8
L:1/8
Q:120
C:Long Room At Scarborough,aka,Bean Setting
S:J.Lishman()MS,c1825,Lakes,Browne Coll.
R:Slip Jig
O:England
A:Lakes
N:The time signature is given as 6/8. Bears a resemblance to Long Room
N:At
N:Scarborough.Also Bean Setting. CGP
Z:vmp.Cherri Graebe.
K:G major
GAG BAG Bdg|GAG Bcd AED|!
GAG BAG Bdg|ece dBG A"F in ms"ED:|!
|:gag gdB gdB|aba afd afd|!
gag gdB efg|ege dBG AFD:|]
